(G-CODE GENERATED BY FLATCAM v8.994 - www.flatcam.org - Version Date: 2020/11/7)

(Name: CalibrationMilling-F_Cu.gbr_iso_combined_cnc)
(Type: G-code from Geometry)
(Units: MM)

(Created on Saturday, 23 July 2022 at 17:08)

(This preprocessor is used with a motion controller loaded with GRBL firmware.)
(It is configured to be compatible with almost any version of GRBL firmware.)

(TOOL DIAMETER: 0.1632 mm)
(Feedrate_XY: 120.0 mm/min)
(Feedrate_Z: 60.0 mm/min)
(Feedrate rapids 1500.0 mm/min)

(Z_Cut: -0.0375 mm)
(DepthPerCut: 0.45 mm <=>1 passes)
(Z_Move: 2.0 mm)
(Z Start: None mm)
(Z End: 10.0 mm)
(X,Y End: None mm)
(Steps per circle: 64)
(Steps per circle: 64)
(Preprocessor Geometry: GRBL_11_no_M6)

(X range:   -0.0386 ...   18.7886  mm)
(Y range:   -0.0386 ...   10.4792  mm)

(Spindle Speed: 1000.0 RPM)
G21
G90
G17
G94


M3 S1
G4 P2

G01 F120.00

G00 Z10.0000
G00 X0.0000 Y0.0000                
G00 Z10.0000
        
M03 S1000.0
G4 P2.0
G01 F120.00
G00 X0.0024 Y1.0556
G01 F60.00
G01 Z-0.0375
G01 F120.00
G01 X0.0166 Y1.0232 F120.00
G01 X0.0224 Y1.0113 F120.00
G01 X0.0348 Y0.9880 F120.00
G01 X0.0484 Y0.9653 F120.00
G01 X0.0556 Y0.9542 F120.00
G01 X0.0709 Y0.9326 F120.00
G01 X0.0789 Y0.9221 F120.00
G01 X0.0871 Y0.9118 F120.00
G01 X0.1044 Y0.8918 F120.00
G01 X0.1134 Y0.8821 F120.00
G01 X0.1321 Y0.8634 F120.00
G01 X0.1517 Y0.8456 F120.00
G01 X0.1721 Y0.8289 F120.00
G01 X0.1826 Y0.8209 F120.00
G01 X0.2042 Y0.8056 F120.00
G01 X0.2153 Y0.7984 F120.00
G01 X0.2265 Y0.7915 F120.00
G01 X0.2495 Y0.7785 F120.00
G01 X0.2732 Y0.7666 F120.00
G01 X0.2852 Y0.7611 F120.00
G01 X0.3179 Y0.7475 F120.00
G01 X0.3303 Y0.7429 F120.00
G01 X0.3554 Y0.7346 F120.00
G01 X0.3681 Y0.7310 F120.00
G01 X0.3937 Y0.7245 F120.00
G01 X0.4066 Y0.7218 F120.00
G01 X0.4327 Y0.7173 F120.00
G01 X0.4614 Y0.7138 F120.00
G01 X0.4614 Y0.5117 F120.00
G01 X0.4621 Y0.4853 F120.00
G01 X0.4640 Y0.4589 F120.00
G01 X0.4673 Y0.4327 F120.00
G01 X0.4718 Y0.4066 F120.00
G01 X0.4776 Y0.3808 F120.00
G01 X0.4846 Y0.3554 F120.00
G01 X0.4886 Y0.3428 F120.00
G01 X0.4975 Y0.3179 F120.00
G01 X0.5111 Y0.2852 F120.00
G01 X0.5224 Y0.2613 F120.00
G01 X0.5285 Y0.2495 F120.00
G01 X0.5415 Y0.2265 F120.00
G01 X0.5556 Y0.2042 F120.00
G01 X0.5631 Y0.1933 F120.00
G01 X0.5709 Y0.1826 F120.00
G01 X0.5871 Y0.1618 F120.00
G01 X0.6044 Y0.1418 F120.00
G01 X0.6226 Y0.1226 F120.00
G01 X0.6418 Y0.1044 F120.00
G01 X0.6618 Y0.0871 F120.00
G01 X0.6826 Y0.0709 F120.00
G01 X0.7042 Y0.0556 F120.00
G01 X0.7265 Y0.0415 F120.00
G01 X0.7495 Y0.0285 F120.00
G01 X0.7732 Y0.0166 F120.00
G01 X0.7852 Y0.0111 F120.00
G01 X0.8179 Y-0.0025 F120.00
G01 X0.8428 Y-0.0114 F120.00
G01 X0.8681 Y-0.0190 F120.00
G01 X0.8937 Y-0.0255 F120.00
G01 X0.9196 Y-0.0306 F120.00
G01 X0.9458 Y-0.0345 F120.00
G01 X0.9721 Y-0.0371 F120.00
G01 X0.9985 Y-0.0384 F120.00
G01 X1.2978 Y-0.0386 F120.00
G01 X1.3110 Y-0.0384 F120.00
G01 X1.3374 Y-0.0371 F120.00
G01 X1.3637 Y-0.0345 F120.00
G01 X1.3768 Y-0.0327 F120.00
G01 X1.3899 Y-0.0306 F120.00
G01 X1.4158 Y-0.0255 F120.00
G01 X1.4287 Y-0.0224 F120.00
G01 X1.4541 Y-0.0154 F120.00
G01 X1.4792 Y-0.0071 F120.00
G01 X1.5000 Y0.0009 F120.00
G01 X1.5208 Y-0.0071 F120.00
G01 X1.5459 Y-0.0154 F120.00
G01 X1.5586 Y-0.0190 F120.00
G01 X1.5842 Y-0.0255 F120.00
G01 X1.6101 Y-0.0306 F120.00
G01 X1.6232 Y-0.0327 F120.00
G01 X1.6363 Y-0.0345 F120.00
G01 X1.6626 Y-0.0371 F120.00
G01 X1.6890 Y-0.0384 F120.00
G01 X1.7022 Y-0.0386 F120.00
G01 X1.9883 Y-0.0386 F120.00
G01 X2.0147 Y-0.0379 F120.00
G01 X2.0411 Y-0.0360 F120.00
G01 X2.0673 Y-0.0327 F120.00
G01 X2.0934 Y-0.0282 F120.00
G01 X2.1063 Y-0.0255 F120.00
G01 X2.1319 Y-0.0190 F120.00
G01 X2.1572 Y-0.0114 F120.00
G01 X2.1821 Y-0.0025 F120.00
G01 X2.2148 Y0.0111 F120.00
G01 X2.2387 Y0.0224 F120.00
G01 X2.2620 Y0.0348 F120.00
G01 X2.2847 Y0.0484 F120.00
G01 X2.3067 Y0.0631 F120.00
G01 X2.3279 Y0.0789 F120.00
G01 X2.3483 Y0.0956 F120.00
G01 X2.3679 Y0.1134 F120.00
G01 X2.3774 Y0.1226 F120.00
G01 X2.3956 Y0.1418 F120.00
G01 X2.4044 Y0.1517 F120.00
G01 X2.4211 Y0.1721 F120.00
G01 X2.4369 Y0.1933 F120.00
G01 X2.4516 Y0.2153 F120.00
G01 X2.4652 Y0.2380 F120.00
G01 X2.4776 Y0.2613 F120.00
G01 X2.4889 Y0.2852 F120.00
G01 X2.4941 Y0.2973 F120.00
G01 X2.5025 Y0.3179 F120.00
G01 X2.5114 Y0.3428 F120.00
G01 X2.5190 Y0.3681 F120.00
G01 X2.5224 Y0.3808 F120.00
G01 X2.5282 Y0.4066 F120.00
G01 X2.5306 Y0.4196 F120.00
G01 X2.5327 Y0.4327 F120.00
G01 X2.5360 Y0.4589 F120.00
G01 X2.5379 Y0.4853 F120.00
G01 X2.5386 Y0.5117 F120.00
G01 X2.5386 Y0.7331 F120.00
G01 X2.5586 Y0.7276 F120.00
G01 X2.5715 Y0.7245 F120.00
G01 X2.5974 Y0.7194 F120.00
G01 X2.6105 Y0.7173 F120.00
G01 X2.6367 Y0.7140 F120.00
G01 X2.6499 Y0.7129 F120.00
G01 X2.6763 Y0.7116 F120.00
G01 X2.6895 Y0.7114 F120.00
G01 X3.3232 Y0.7114 F120.00
G01 X3.3496 Y0.7121 F120.00
G01 X3.3760 Y0.7140 F120.00
G01 X3.3891 Y0.7155 F120.00
G01 X3.4153 Y0.7194 F120.00
G01 X3.4283 Y0.7218 F120.00
G01 X3.4541 Y0.7276 F120.00
G01 X3.4668 Y0.7310 F120.00
G01 X3.4795 Y0.7346 F120.00
G01 X3.5000 Y0.7413 F120.00
G01 X3.5205 Y0.7346 F120.00
G01 X3.5459 Y0.7276 F120.00
G01 X3.5588 Y0.7245 F120.00
G01 X3.5847 Y0.7194 F120.00
G01 X3.6109 Y0.7155 F120.00
G01 X3.6372 Y0.7129 F120.00
G01 X3.6504 Y0.7121 F120.00
G01 X3.6768 Y0.7114 F120.00
G01 X4.3491 Y0.7116 F120.00
G01 X4.3623 Y0.7121 F120.00
G01 X4.3887 Y0.7140 F120.00
G01 X4.4149 Y0.7173 F120.00
G01 X4.4280 Y0.7194 F120.00
G01 X4.4410 Y0.7218 F120.00
G01 X4.4668 Y0.7276 F120.00
G01 X4.4795 Y0.7310 F120.00
G01 X4.5000 Y0.7371 F120.00
G01 X4.5205 Y0.7310 F120.00
G01 X4.5332 Y0.7276 F120.00
G01 X4.5461 Y0.7245 F120.00
G01 X4.5720 Y0.7194 F120.00
G01 X4.5982 Y0.7155 F120.00
G01 X4.6113 Y0.7140 F120.00
G01 X4.6245 Y0.7129 F120.00
G01 X4.6509 Y0.7116 F120.00
G01 X5.3618 Y0.7116 F120.00
G01 X5.3882 Y0.7129 F120.00
G01 X5.4145 Y0.7155 F120.00
G01 X5.4407 Y0.7194 F120.00
G01 X5.4614 Y0.7234 F120.00
G01 X5.4616 Y0.4985 F120.00
G01 X5.4629 Y0.4721 F120.00
G01 X5.4640 Y0.4589 F120.00
G01 X5.4673 Y0.4327 F120.00
G01 X5.4718 Y0.4066 F120.00
G01 X5.4776 Y0.3808 F120.00
G01 X5.4846 Y0.3554 F120.00
G01 X5.4929 Y0.3303 F120.00
G01 X5.5059 Y0.2973 F120.00
G01 X5.5166 Y0.2732 F120.00
G01 X5.5285 Y0.2495 F120.00
G01 X5.5415 Y0.2265 F120.00
G01 X5.5484 Y0.2153 F120.00
G01 X5.5631 Y0.1933 F120.00
G01 X5.5709 Y0.1826 F120.00
G01 X5.5871 Y0.1618 F120.00
G01 X5.6044 Y0.1418 F120.00
G01 X5.6226 Y0.1226 F120.00
G01 X5.6418 Y0.1044 F120.00
G01 X5.6517 Y0.0956 F120.00
G01 X5.6618 Y0.0871 F120.00
G01 X5.6826 Y0.0709 F120.00
G01 X5.7042 Y0.0556 F120.00
G01 X5.7153 Y0.0484 F120.00
G01 X5.7380 Y0.0348 F120.00
G01 X5.7613 Y0.0224 F120.00
G01 X5.7852 Y0.0111 F120.00
G01 X5.8179 Y-0.0025 F120.00
G01 X5.8428 Y-0.0114 F120.00
G01 X5.8554 Y-0.0154 F120.00
G01 X5.8808 Y-0.0224 F120.00
G01 X5.9066 Y-0.0282 F120.00
G01 X5.9327 Y-0.0327 F120.00
G01 X5.9458 Y-0.0345 F120.00
G01 X5.9721 Y-0.0371 F120.00
G01 X5.9985 Y-0.0384 F120.00
G01 X6.0117 Y-0.0386 F120.00
G01 X6.3613 Y-0.0386 F120.00
G01 X6.3877 Y-0.0379 F120.00
G01 X6.4141 Y-0.0360 F120.00
G01 X6.4403 Y-0.0327 F120.00
G01 X6.4664 Y-0.0282 F120.00
G01 X6.4793 Y-0.0255 F120.00
G01 X6.5000 Y-0.0204 F120.00
G01 X6.5207 Y-0.0255 F120.00
G01 X6.5336 Y-0.0282 F120.00
G01 X6.5597 Y-0.0327 F120.00
G01 X6.5728 Y-0.0345 F120.00
G01 X6.5991 Y-0.0371 F120.00
G01 X6.6255 Y-0.0384 F120.00
G01 X6.9883 Y-0.0386 F120.00
G01 X7.0147 Y-0.0379 F120.00
G01 X7.0411 Y-0.0360 F120.00
G01 X7.0673 Y-0.0327 F120.00
G01 X7.0934 Y-0.0282 F120.00
G01 X7.1192 Y-0.0224 F120.00
G01 X7.1319 Y-0.0190 F120.00
G01 X7.1572 Y-0.0114 F120.00
G01 X7.1821 Y-0.0025 F120.00
G01 X7.2148 Y0.0111 F120.00
G01 X7.2387 Y0.0224 F120.00
G01 X7.2620 Y0.0348 F120.00
G01 X7.2847 Y0.0484 F120.00
G01 X7.2958 Y0.0556 F120.00
G01 X7.3174 Y0.0709 F120.00
G01 X7.3382 Y0.0871 F120.00
G01 X7.3582 Y0.1044 F120.00
G01 X7.3774 Y0.1226 F120.00
G01 X7.3866 Y0.1321 F120.00
G01 X7.3956 Y0.1418 F120.00
G01 X7.4129 Y0.1618 F120.00
G01 X7.4291 Y0.1826 F120.00
G01 X7.4444 Y0.2042 F120.00
G01 X7.4516 Y0.2153 F120.00
G01 X7.4652 Y0.2380 F120.00
G01 X7.4776 Y0.2613 F120.00
G01 X7.4889 Y0.2852 F120.00
G01 X7.4976 Y0.3056 F120.00
G01 X7.5071 Y0.3303 F120.00
G01 X7.5114 Y0.3428 F120.00
G01 X7.5190 Y0.3681 F120.00
G01 X7.5255 Y0.3937 F120.00
G01 X7.5282 Y0.4066 F120.00
G01 X7.5327 Y0.4327 F120.00
G01 X7.5345 Y0.4458 F120.00
G01 X7.5371 Y0.4721 F120.00
G01 X7.5384 Y0.4985 F120.00
G01 X7.5386 Y0.7186 F120.00
G01 X7.5601 Y0.7155 F120.00
G01 X7.5864 Y0.7129 F120.00
G01 X7.5996 Y0.7121 F120.00
G01 X7.6260 Y0.7114 F120.00
G01 X8.3999 Y0.7116 F120.00
G01 X8.4263 Y0.7129 F120.00
G01 X8.4526 Y0.7155 F120.00
G01 X8.4788 Y0.7194 F120.00
G01 X8.5000 Y0.7235 F120.00
G01 X8.5212 Y0.7194 F120.00
G01 X8.5343 Y0.7173 F120.00
G01 X8.5605 Y0.7140 F120.00
G01 X8.5869 Y0.7121 F120.00
G01 X8.6133 Y0.7114 F120.00
G01 X9.3994 Y0.7114 F120.00
G01 X9.4258 Y0.7121 F120.00
G01 X9.4522 Y0.7140 F120.00
G01 X9.4784 Y0.7173 F120.00
G01 X9.5000 Y0.7210 F120.00
G01 X9.5216 Y0.7173 F120.00
G01 X9.5478 Y0.7140 F120.00
G01 X9.5742 Y0.7121 F120.00
G01 X9.6006 Y0.7114 F120.00
G01 X10.4121 Y0.7114 F120.00
G01 X10.4385 Y0.7121 F120.00
G01 X10.4614 Y0.7137 F120.00
G01 X10.4616 Y0.4985 F120.00
G01 X10.4629 Y0.4721 F120.00
G01 X10.4640 Y0.4589 F120.00
G01 X10.4673 Y0.4327 F120.00
G01 X10.4718 Y0.4066 F120.00
G01 X10.4776 Y0.3808 F120.00
G01 X10.4846 Y0.3554 F120.00
G01 X10.4886 Y0.3428 F120.00
G01 X10.4975 Y0.3179 F120.00
G01 X10.5111 Y0.2852 F120.00
G01 X10.5224 Y0.2613 F120.00
G01 X10.5348 Y0.2380 F120.00
G01 X10.5484 Y0.2153 F120.00
G01 X10.5631 Y0.1933 F120.00
G01 X10.5709 Y0.1826 F120.00
G01 X10.5871 Y0.1618 F120.00
G01 X10.5956 Y0.1517 F120.00
G01 X10.6134 Y0.1321 F120.00
G01 X10.6226 Y0.1226 F120.00
G01 X10.6418 Y0.1044 F120.00
G01 X10.6618 Y0.0871 F120.00
G01 X10.6826 Y0.0709 F120.00
G01 X10.7042 Y0.0556 F120.00
G01 X10.7153 Y0.0484 F120.00
G01 X10.7380 Y0.0348 F120.00
G01 X10.7613 Y0.0224 F120.00
G01 X10.7852 Y0.0111 F120.00
G01 X10.8179 Y-0.0025 F120.00
G01 X10.8428 Y-0.0114 F120.00
G01 X10.8681 Y-0.0190 F120.00
G01 X10.8808 Y-0.0224 F120.00
G01 X10.9066 Y-0.0282 F120.00
G01 X10.9196 Y-0.0306 F120.00
G01 X10.9458 Y-0.0345 F120.00
G01 X10.9589 Y-0.0360 F120.00
G01 X10.9853 Y-0.0379 F120.00
G01 X11.0117 Y-0.0386 F120.00
G01 X11.4248 Y-0.0386 F120.00
G01 X11.4380 Y-0.0384 F120.00
G01 X11.4644 Y-0.0371 F120.00
G01 X11.4776 Y-0.0360 F120.00
G01 X11.5000 Y-0.0332 F120.00
G01 X11.5224 Y-0.0360 F120.00
G01 X11.5356 Y-0.0371 F120.00
G01 X11.5488 Y-0.0379 F120.00
G01 X11.5752 Y-0.0386 F120.00
G01 X11.9883 Y-0.0386 F120.00
G01 X12.0147 Y-0.0379 F120.00
G01 X12.0411 Y-0.0360 F120.00
G01 X12.0542 Y-0.0345 F120.00
G01 X12.0804 Y-0.0306 F120.00
G01 X12.1063 Y-0.0255 F120.00
G01 X12.1319 Y-0.0190 F120.00
G01 X12.1572 Y-0.0114 F120.00
G01 X12.1821 Y-0.0025 F120.00
G01 X12.2148 Y0.0111 F120.00
G01 X12.2387 Y0.0224 F120.00
G01 X12.2620 Y0.0348 F120.00
G01 X12.2847 Y0.0484 F120.00
G01 X12.2958 Y0.0556 F120.00
G01 X12.3174 Y0.0709 F120.00
G01 X12.3279 Y0.0789 F120.00
G01 X12.3483 Y0.0956 F120.00
G01 X12.3679 Y0.1134 F120.00
G01 X12.3866 Y0.1321 F120.00
G01 X12.4044 Y0.1517 F120.00
G01 X12.4211 Y0.1721 F120.00
G01 X12.4291 Y0.1826 F120.00
G01 X12.4444 Y0.2042 F120.00
G01 X12.4516 Y0.2153 F120.00
G01 X12.4652 Y0.2380 F120.00
G01 X12.4776 Y0.2613 F120.00
G01 X12.4889 Y0.2852 F120.00
G01 X12.4976 Y0.3056 F120.00
G01 X12.5071 Y0.3303 F120.00
G01 X12.5114 Y0.3428 F120.00
G01 X12.5190 Y0.3681 F120.00
G01 X12.5255 Y0.3937 F120.00
G01 X12.5282 Y0.4066 F120.00
G01 X12.5306 Y0.4196 F120.00
G01 X12.5345 Y0.4458 F120.00
G01 X12.5371 Y0.4721 F120.00
G01 X12.5384 Y0.4985 F120.00
G01 X12.5386 Y0.7120 F120.00
G01 X12.5625 Y0.7114 F120.00
G01 X13.4502 Y0.7114 F120.00
G01 X13.4766 Y0.7121 F120.00
G01 X13.5000 Y0.7138 F120.00
G01 X13.5234 Y0.7121 F120.00
G01 X13.5498 Y0.7114 F120.00
G01 X14.4629 Y0.7114 F120.00
G01 X14.4761 Y0.7116 F120.00
G01 X14.5000 Y0.7127 F120.00
G01 X14.5239 Y0.7116 F120.00
G01 X14.5371 Y0.7114 F120.00
G01 X15.4756 Y0.7114 F120.00
G01 X15.5000 Y0.7120 F120.00
G01 X15.5244 Y0.7114 F120.00
G01 X18.2383 Y0.7114 F120.00
G01 X18.2647 Y0.7121 F120.00
G01 X18.2779 Y0.7129 F120.00
G01 X18.3042 Y0.7155 F120.00
G01 X18.3173 Y0.7173 F120.00
G01 X18.3304 Y0.7194 F120.00
G01 X18.3563 Y0.7245 F120.00
G01 X18.3819 Y0.7310 F120.00
G01 X18.4072 Y0.7386 F120.00
G01 X18.4321 Y0.7475 F120.00
G01 X18.4444 Y0.7524 F120.00
G01 X18.4648 Y0.7611 F120.00
G01 X18.4887 Y0.7724 F120.00
G01 X18.5120 Y0.7848 F120.00
G01 X18.5347 Y0.7984 F120.00
G01 X18.5567 Y0.8131 F120.00
G01 X18.5674 Y0.8209 F120.00
G01 X18.5779 Y0.8289 F120.00
G01 X18.5983 Y0.8456 F120.00
G01 X18.6082 Y0.8544 F120.00
G01 X18.6274 Y0.8726 F120.00
G01 X18.6456 Y0.8918 F120.00
G01 X18.6629 Y0.9118 F120.00
G01 X18.6711 Y0.9221 F120.00
G01 X18.6869 Y0.9433 F120.00
G01 X18.6944 Y0.9542 F120.00
G01 X18.7085 Y0.9765 F120.00
G01 X18.7152 Y0.9880 F120.00
G01 X18.7276 Y1.0113 F120.00
G01 X18.7389 Y1.0352 F120.00
G01 X18.7476 Y1.0556 F120.00
G01 X18.7525 Y1.0679 F120.00
G01 X18.7614 Y1.0928 F120.00
G01 X18.7690 Y1.1181 F120.00
G01 X18.7755 Y1.1437 F120.00
G01 X18.7806 Y1.1696 F120.00
G01 X18.7827 Y1.1827 F120.00
G01 X18.7845 Y1.1958 F120.00
G01 X18.7871 Y1.2221 F120.00
G01 X18.7884 Y1.2485 F120.00
G01 X18.7886 Y1.2617 F120.00
G01 X18.7886 Y3.7383 F120.00
G01 X18.7879 Y3.7647 F120.00
G01 X18.7871 Y3.7779 F120.00
G01 X18.7860 Y3.7911 F120.00
G01 X18.7827 Y3.8173 F120.00
G01 X18.7806 Y3.8304 F120.00
G01 X18.7755 Y3.8563 F120.00
G01 X18.7690 Y3.8819 F120.00
G01 X18.7614 Y3.9072 F120.00
G01 X18.7571 Y3.9197 F120.00
G01 X18.7476 Y3.9444 F120.00
G01 X18.7389 Y3.9648 F120.00
G01 X18.7276 Y3.9887 F120.00
G01 X18.7215 Y4.0005 F120.00
G01 X18.7085 Y4.0235 F120.00
G01 X18.6944 Y4.0458 F120.00
G01 X18.6791 Y4.0674 F120.00
G01 X18.6711 Y4.0779 F120.00
G01 X18.6544 Y4.0983 F120.00
G01 X18.6366 Y4.1179 F120.00
G01 X18.6274 Y4.1274 F120.00
G01 X18.6082 Y4.1456 F120.00
G01 X18.5983 Y4.1544 F120.00
G01 X18.5882 Y4.1629 F120.00
G01 X18.5674 Y4.1791 F120.00
G01 X18.5458 Y4.1944 F120.00
G01 X18.5235 Y4.2085 F120.00
G01 X18.5120 Y4.2152 F120.00
G01 X18.4887 Y4.2276 F120.00
G01 X18.4648 Y4.2389 F120.00
G01 X18.4444 Y4.2476 F120.00
G01 X18.4321 Y4.2525 F120.00
G01 X18.4072 Y4.2614 F120.00
G01 X18.3819 Y4.2690 F120.00
G01 X18.3692 Y4.2724 F120.00
G01 X18.3563 Y4.2755 F120.00
G01 X18.3304 Y4.2806 F120.00
G01 X18.3042 Y4.2845 F120.00
G01 X18.2779 Y4.2871 F120.00
G01 X18.2647 Y4.2879 F120.00
G01 X18.2383 Y4.2886 F120.00
G01 X16.0513 Y4.2886 F120.00
G01 X16.0511 Y7.7605 F120.00
G01 X16.0506 Y7.7749 F120.00
G01 X16.0486 Y7.8013 F120.00
G01 X16.0454 Y7.8275 F120.00
G01 X16.0431 Y7.8418 F120.00
G01 X16.0379 Y7.8677 F120.00
G01 X16.0349 Y7.8806 F120.00
G01 X16.0312 Y7.8946 F120.00
G01 X16.0235 Y7.9199 F120.00
G01 X16.0188 Y7.9336 F120.00
G01 X16.0093 Y7.9582 F120.00
G01 X15.9986 Y7.9824 F120.00
G01 X15.9923 Y7.9954 F120.00
G01 X15.9798 Y8.0187 F120.00
G01 X15.9731 Y8.0301 F120.00
G01 X15.9656 Y8.0424 F120.00
G01 X15.9509 Y8.0644 F120.00
G01 X15.9344 Y8.0867 F120.00
G01 X15.9176 Y8.1071 F120.00
G01 X15.9089 Y8.1170 F120.00
G01 X15.8898 Y8.1371 F120.00
G01 X15.8697 Y8.1561 F120.00
G01 X15.8598 Y8.1649 F120.00
G01 X15.8394 Y8.1817 F120.00
G01 X15.8172 Y8.1981 F120.00
G01 X15.7952 Y8.2128 F120.00
G01 X15.7839 Y8.2198 F120.00
G01 X15.7599 Y8.2334 F120.00
G01 X15.7351 Y8.2459 F120.00
G01 X15.7231 Y8.2514 F120.00
G01 X15.6987 Y8.2615 F120.00
G01 X15.6726 Y8.2708 F120.00
G01 X15.6473 Y8.2785 F120.00
G01 X15.6345 Y8.2818 F120.00
G01 X15.6075 Y8.2879 F120.00
G01 X15.5803 Y8.2926 F120.00
G01 X15.5672 Y8.2944 F120.00
G01 X15.5409 Y8.2970 F120.00
G01 X15.5132 Y8.2984 F120.00
G01 X15.5000 Y8.2985 F120.00
G01 X15.4736 Y8.2979 F120.00
G01 X15.4591 Y8.2970 F120.00
G01 X15.4328 Y8.2944 F120.00
G01 X15.4185 Y8.2925 F120.00
G01 X15.3925 Y8.2879 F120.00
G01 X15.3667 Y8.2821 F120.00
G01 X15.3527 Y8.2785 F120.00
G01 X15.3400 Y8.2748 F120.00
G01 X15.3149 Y8.2665 F120.00
G01 X15.3013 Y8.2615 F120.00
G01 X15.2769 Y8.2514 F120.00
G01 X15.2637 Y8.2453 F120.00
G01 X15.2401 Y8.2334 F120.00
G01 X15.2161 Y8.2198 F120.00
G01 X15.1937 Y8.2056 F120.00
G01 X15.1828 Y8.1981 F120.00
G01 X15.1711 Y8.1897 F120.00
